X: 61
T:Chilly Winds
% Nottingham Music Database
S:via PR
M:4/4
L:1/4
K:Dm
A,|"Dm"DD FF/2G/2|"F"A/2G/2F/2G/2 A/2G/2F/2G/2|"Dm"DD FF/2G/2|"Am"A3/2c/2 AA,|
"Dm"DD FF/2G/2|"F"A/2G/2F/2G/2 A/2G/2F/2G/2|"Dm"A/2G/2F "Am"DC|"Dm"D2 D::
d|"Dm"dc Ac|"Am"A/2G/2F "Dm"Dd|"Dm"dc Ac|"Am"A3/2c/2 Ad|"Dm"dc Ac|\
"Am"A/2G/2F "Dm"DA|"Dm"A/2G/2F "Am"DC|"Dm"D2 D:|<end>
<start>
